app/dist/common/images/ono-pharmaceutical.svg

<svg height="18" viewBox="0 0 18 18" width="18" xmlns="http://www.w3.org/2000/svg"><path d="m0 0h18v18h-18z" fill="#f0f3fa"/><path d="m4 14h10v-10h-10z" fill="#193a66"/><path d="m7.33 8.62c0-.71-.6-1.29-1.33-1.29-.74 0-1.33.58-1.33 1.3v3.08c0 .72.6 1.3 1.33 1.3.74 0 1.33-.58 1.33-1.3zm6 0c0-.71-.6-1.29-1.33-1.29-.74 0-1.33.58-1.33 1.3v3.08c0 .72.6 1.3 1.33 1.3s1.33-.58 1.33-1.3zm-3 .15v4.23h-1.13v-4.23c0-.11-.09-.2-.19-.2s-.2.09-.2.2v4.23h-1.13v-4.23c0-.8.6-1.44 1.33-1.44.74 0 1.33.65 1.33 1.44z" fill="#f0f3fa"/><path d="m5.83 11.6c0 .1.08.18.17.18.1 0 .17-.07.17-.17v-2.92a.17.17 0 1 0 -.33 0v2.92zm6 0c0 .1.08.18.17.18.1 0 .17-.07.17-.17v-2.92c0-.1-.08-.17-.17-.17-.1 0-.17.08-.17.17v2.92z" fill="#193a66"/></svg>

<!-- by TradingView --><svg xmlns="http://www.w3.org/2000/svg" width="18" height="18" viewBox="0 0 18 18"><path fill="#F0F3FA" d="M0 0h18v18H0z"/><path d="M4 14h10V4H4v10Z" fill="#193A66"/><path d="M7.33 8.62c0-.71-.6-1.29-1.33-1.29-.74 0-1.33.58-1.33 1.3v3.08c0 .72.6 1.3 1.33 1.3.74 0 1.33-.58 1.33-1.3V8.62Zm6 0c0-.71-.6-1.29-1.33-1.29-.74 0-1.33.58-1.33 1.3v3.08c0 .72.6 1.3 1.33 1.3.73 0 1.33-.58 1.33-1.3V8.62Zm-3 .15V13H9.2V8.77c0-.11-.09-.2-.19-.2s-.2.09-.2.2V13H7.68V8.77c0-.8.6-1.44 1.33-1.44.74 0 1.33.65 1.33 1.44Z" fill="#F0F3FA"/><path d="M5.83 11.6c0 .1.08.18.17.18.1 0 .17-.07.17-.17V8.69a.17.17 0 1 0-.33 0v2.92ZM11.83 11.6c0 .1.08.18.17.18.1 0 .17-.07.17-.17V8.69c0-.1-.08-.17-.17-.17-.1 0-.17.08-.17.17v2.92Z" fill="#193A66"/></svg>
